X:1
T:An Seanduine Dóite
R:jig
M:6/8
L:1/8
K:D
|:DFB AFD|~F2F ~F2E|DFB AFD|~E2E EFE|
|DFB AFE|DFA ~d2e|fed ~B2B|AFD ~E2D:|
|:~d2d def|ABA AFA|~e2e ede|fed ~B2A|
|~d2d def|ABA ~d2e|fed ~B2B|AFD ~E2D:|